Origami/64x64/apps/teamviewer.svg

<svg width="64" height="64" version="1" xmlns="http://www.w3.org/2000/svg">
 <path d="m4 56v2c0 1.662 1.338 3 3 3h50c1.662 0 3-1.338 3-3v-2c0 1.662-1.338 3-3 3h-50c-1.662 0-3-1.338-3-3z" style="opacity:.2"/>
 <rect transform="matrix(0,-1,-1,0,0,0)" x="-60" y="-60" width="56" height="56" rx="3" ry="3" style="fill:#4e91d9"/>
 <path d="m7 4c-1.662 0-3 1.338-3 3v1c0-1.662 1.338-3 3-3h50c1.662 0 3 1.338 3 3v-1c0-1.662-1.338-3-3-3h-50z" style="fill:#ffffff;opacity:.1"/>
 <path d="m32 11c-12.150264 0-22 9.849736-22 22s9.849736 22 22 22 22-9.849736 22-22-9.849736-22-22-22zm-8 13.75v4.25h16v-4.25l12 8.25-12 8.25v-4.25h-16v4.25l-12-8.25z" style="opacity:.2"/>
 <path d="m32 10c-12.150264 0-22 9.849736-22 22s9.849736 22 22 22 22-9.849736 22-22-9.849736-22-22-22zm-8 13.75v4.25h16v-4.25l12 8.25-12 8.25v-4.25h-16v4.25l-12-8.25z" style="fill:#ffffff"/>
</svg>

<svg xmlns="http://www.w3.org/2000/svg" width="64" height="64" version="1">
 <path style="opacity:0.2" d="m 4,56 0,2 c 0,1.662 1.338,3 3,3 l 50,0 c 1.662,0 3,-1.338 3,-3 l 0,-2 c 0,1.662 -1.338,3 -3,3 L 7,59 C 5.338,59 4,57.662 4,56 Z"/>
 <rect style="fill:#4e91d9" width="56" height="56" x="-60" y="-60" rx="3" ry="3" transform="matrix(0,-1,-1,0,0,0)"/>
 <path style="opacity:0.1;fill:#ffffff" d="M 7 4 C 5.338 4 4 5.338 4 7 L 4 8 C 4 6.338 5.338 5 7 5 L 57 5 C 58.662 5 60 6.338 60 8 L 60 7 C 60 5.338 58.662 4 57 4 L 7 4 z"/>
 <path d="M 32,11 C 19.849736,11 10,20.849736 10,33 10,45.150264 19.849736,55 32,55 44.150264,55 54,45.150264 54,33 54,20.849736 44.150264,11 32,11 Z M 24,24.75 24,29 40,29 40,24.75 52,33 40,41.25 40,37 24,37 24,41.25 12,33 Z" style="opacity:0.2"/>
 <path style="fill:#ffffff" d="M 32,10 C 19.849736,10 10,19.849736 10,32 10,44.150264 19.849736,54 32,54 44.150264,54 54,44.150264 54,32 54,19.849736 44.150264,10 32,10 Z M 24,23.75 24,28 40,28 40,23.75 52,32 40,40.25 40,36 24,36 24,40.25 12,32 Z"/>
</svg>
